X: 2780
T: Banquet Hall
R: reel
M: 4/4
K: Gmajor
e2 c2 d2 B2|c2 A2 B2 G2|e2 c2 d2 B2|c2 A2 B4|
c2 ABc BA z|G2 ABcde2|B2 c2 ABc B|AG AcBG A2|
cdee edeA|cAAG A2 A2|eee d2 BcA|AG A2 A2 c2|
ABc d2 B cd|e2 cB A2 G2|c2 ABc d2 B|cd e2 cB A2|
ee edeA cA|AG A2 A2 ee|e d2 BcA AG|A2 A2 ee e2|
d2 BcA AGz|A2 A2 ABcd|eee d2 BcA|AG A2 A4|

